!!!OTL: Ich fahr wohl &uuml;ber ein See (Band 1), S. 252
!!!id: P0865
**kern
*clefG2
*k[f#]
*G:
{4d
=1
4.g
8a
8b
8b
4cc
=2
4dd
8dd
8dd
4dd}
=3
{4dd
=4
4ee
4dd
8cc
8cc
4b}
=5
2.r
=6
{4d
=7
4.g
8a
8b
8b
4cc
=8
4dd
8dd
8dd
4dd}
=9
{4dd
=10
4ee
4dd
8cc
8cc
8.b
16b
=11
2a}
4r
=12
{4dd
=13
4dd
4dd
4.ee
8dd
=14
4cc
4b
4a}
4r
=15
{4.b
8b
4dd
4cc
=16
4b
4dd
4gg}
8r
=17
{8dd
=18
4.dd
8b
4ee
4dd
=19
4cc
4b
4a}
=20
{4ee
=21
4dd
4dd
4dd
4dd}
=22
2.r
=23
{4dd
=24
4dd
4dd
4.ee
8dd
=25
4cc
4b
4a}
4r
=26
{4.b
8b
4dd
4cc
=27
4b
4dd
4gg}
8r
=28
{8dd
=29
4dd
4dd
4ee
4dd
=30
4cc
4b
4a}
=31
{4ee
=32
4dd
4dd
4cc
4f#
=33
2g}
4r
==
*-
!!!minrhy: 16
!!!meters: 2/2 ]  ZZ[12
!!!cut: Ich fahr wohl &uuml;ber ein See (Band 1), S. 252
!!!reg: Lothringen
!!!trd: PINCK, Louis: Verklingende Weisen, Bd 1, Metz 1928
!!!rhy1: X__  X__.X_X_X_X__  X__X_X_X__   (x2)
!!!rhy2: X__  X__X__X_X_X__  0__.
!!!key: P0865  16  G 2/2 ]  ZZ[12
!!!mod: HEPTATONIK IONISCH]  AMBITUS[11
!!!kad: 53522+1252+121
!!!akz: 15_6_15_62_54_33_54_5_54_33_54_51_
!!!fot: 'a__b__a__c__d__e__dv_f__d__e__d__g__
!!!for: 'a__b__a__bw_c__d__dv_e__c__d__ew_ew_
!!!fok: '/__\__/__\__\__~a_\__\__\__~a_\__\__
!! PHRAS[VORWIEGEND AUFTAKTIG]
!!!fkt: Spottlied
!! LOTH VKL
!! PR[45] 2K[5] 2G[10] 3K[10] 3G[5] 4A[0] 4Ü[0] 5A[0] 6K[0] 6G[0]
!! 7K[0] 7G[0] 8A[0] MEHR[0] SI[30] ABS[40] SR[15] SP[15]
!! ST[8] 2k[0] 2g[10] 3k[13] 3g[0] 4d[0] 4ü[0] 5d[3] 6k[0] 6g[0]
!! 7k[0] 7g[0] 8d[0] mehr[0] si[25] dm[+5] sr[10] sp[15]
!! 1F[5] 2F[81] 3F[14] 4F[0] LF[0] 2P[0] 3P[0] 4P[0] TRI[0] DF[3] AB[43]
!! TF[0] U3K[0] U3[0] U4[0] U4Ü[0] U5[0] U6K[0] U6[0] U7K[0] U7[0]
!! N1[15] N2K[0] N2[15] N3K[0] N3[32] N4[5] N4Ü[5] N5[24] N6K[0] N6[5]
!!!n7k: 0] N7[0] O1[0] O2K[0] O2[0] O3K[0] O3[0] HÖ[0
!!!RNB: symbol: &uuml;  = u umlaut (UTF-8: Ã¼)
